X: 6
T: The Primrose Lasses
R: reel
M: 4/4
L: 1/8
K: Gmaj
b3a ggge|dBBB dega|1 b2ba ggge|degb adga:|2 b2 ag gede|gedB A2GA:|Bddg edgd|edgd edg2|1 B/c/ddg edge|dBGB AAGA:|2 B/B/Bd edge|dbgd adga||


Tune 789	Setting 13926

